svgs/trash.svg

<?xml version="1.0" encoding="utf-8"?>
<!-- Generator: Adobe Illustrator 23.1.1, SVG Export Plug-In . SVG Version: 6.00 Build 0)  -->
<svg version="1.1" xmlns="http://www.w3.org/2000/svg" xmlns:xlink="http://www.w3.org/1999/xlink" x="0px" y="0px"
	 viewBox="0 0 16 16" style="enable-background:new 0 0 16 16;" xml:space="preserve">
<style type="text/css">
	.st0{display:none;}
	.st1{display:inline;}
	.st2{fill:#404040;}
	.st3{fill:#FFFFFF;}
	.st4{fill:none;}
	.st5{opacity:0.3;fill:none;}
	.st6{fill:#FF0000;}
	.st7{fill-rule:evenodd;clip-rule:evenodd;fill:#404040;}
	.st8{fill-rule:evenodd;clip-rule:evenodd;fill:#FFFFFF;}
	.st9{fill-rule:evenodd;clip-rule:evenodd;fill:#2867B2;}
	.st10{fill:#EE1376;}
	.st11{fill:#1DA1F2;}
	.st12{fill:#1877F2;}
	.st13{display:inline;fill:none;}
	.st14{display:inline;fill:#404040;}
	.st15{display:inline;opacity:0.3;fill:none;}
	.st16{display:inline;fill-rule:evenodd;clip-rule:evenodd;fill:#404040;}
	.st17{fill:none;stroke:#404040;stroke-width:2;stroke-linecap:round;}
</style>
<g id="Outter_Container" class="st0">
</g>
<g id="NEW" class="st0">
</g>
<g id="NEW_NO_Container">
	<g id="icon-trash_2_">
		<path class="st2" d="M14.4998,2.9999h-2.5V1.9985c0-1.1021-0.8965-1.9985-1.998-1.9985H5.9983
			c-1.1021,0-1.9985,0.8965-1.9985,1.9985v1.0015h-2.5c-0.5522,0-1,0.4478-1,1s0.4478,1,1,1h0.5866l0.9173,10.0903
			c0.0469,0.5151,0.479,0.9097,0.9961,0.9097h8c0.5171,0,0.9492-0.3945,0.9961-0.9097l0.9173-10.0903h0.5866c0.5522,0,1-0.4478,1-1
			S15.052,2.9999,14.4998,2.9999z M5.9983,1.9999l4.0015-0.0015v1.0015H5.999L5.9983,1.9999z M11.0867,13.9999H4.9129l-0.8179-9
			h7.8096L11.0867,13.9999z"/>
	</g>
</g>
</svg>

<svg id="NEW_NO_Container" data-name="NEW NO Container" xmlns="http://www.w3.org/2000/svg" viewBox="0 0 15 16"><defs><style>.cls-1{fill:#404040;}</style></defs><title>icon-trash</title><g id="icon-trash"><path class="cls-1" d="M14.5,3H12V1.9985A2.0007,2.0007,0,0,0,10.0017,0H5.9983A2.0008,2.0008,0,0,0,4,1.9985V3H1.5a1,1,0,0,0,0,2h.5866l.9173,10.09A1,1,0,0,0,4,16h8a1,1,0,0,0,.9961-.91L13.9132,5H14.5a1,1,0,0,0,0-2ZM5.9983,2,10,1.9985V3H5.999Zm5.0884,12H4.9129L4.095,5h7.81Z" transform="translate(-0.4998 0.0001)"/></g></svg>
